assets/icons/icon-twitter.svg

<svg width="34" height="34" viewBox="0 0 34 34" fill="none" xmlns="http://www.w3.org/2000/svg">
<g clip-path="url(#clip0_72_17)">
<path d="M33.4612 6.92278C32.2903 7.44162 31.0325 7.79218 29.7102 7.95063C31.0746 7.13423 32.0953 5.84932 32.582 4.33564C31.3001 5.09704 29.8972 5.63299 28.4341 5.92018C27.4503 4.86971 26.1472 4.17344 24.7271 3.93947C23.3069 3.7055 21.8493 3.94692 20.5805 4.62626C19.3116 5.30559 18.3026 6.38483 17.71 7.69641C17.1173 9.00799 16.9743 10.4785 17.3031 11.8797C14.7057 11.7493 12.1647 11.0742 9.84514 9.89822C7.52554 8.72223 5.47913 7.07165 3.83872 5.05359C3.27782 6.02114 2.9553 7.14294 2.9553 8.33765C2.95468 9.41317 3.21953 10.4722 3.72637 11.4208C4.23321 12.3694 4.96635 13.1783 5.86076 13.7756C4.82348 13.7426 3.80909 13.4623 2.90202 12.9581V13.0422C2.90191 14.5506 3.4237 16.0127 4.37884 17.1802C5.33398 18.3478 6.66365 19.1489 8.14222 19.4477C7.17997 19.7081 6.17113 19.7464 5.19189 19.5598C5.60905 20.8578 6.42165 21.9928 7.51593 22.8059C8.6102 23.6191 9.93137 24.0697 11.2945 24.0947C8.98053 25.9112 6.12282 26.8965 3.18106 26.8922C2.65996 26.8923 2.1393 26.8619 1.62177 26.801C4.60782 28.721 8.0838 29.7399 11.6338 29.7359C23.6511 29.7359 30.2206 19.7828 30.2206 11.1506C30.2206 10.8701 30.2136 10.5869 30.201 10.3064C31.4788 9.38229 32.5819 8.23795 33.4584 6.92699L33.4612 6.92278Z" fill="#F8F8F8"/>
</g>
<defs>
<clipPath id="clip0_72_17">
<rect width="33.6539" height="33.6539" fill="white" transform="translate(0.307861)"/>
</clipPath>
</defs>
</svg>

<svg xmlns="http://www.w3.org/2000/svg" width="34" height="34" fill="none"><g clip-path="url(#a)"><path fill="#F8F8F8" d="M33.461 6.923a13 13 0 0 1-3.75 1.028 6.55 6.55 0 0 0 2.871-3.615 13 13 0 0 1-4.148 1.584 6.534 6.534 0 0 0-11.13 5.96A18.55 18.55 0 0 1 3.838 5.054a6.53 6.53 0 0 0-.884 3.284 6.53 6.53 0 0 0 2.906 5.438 6.5 6.5 0 0 1-2.959-.818v.084a6.534 6.534 0 0 0 5.24 6.406 6.6 6.6 0 0 1-2.95.112 6.535 6.535 0 0 0 6.102 4.535 13.1 13.1 0 0 1-8.113 2.797q-.782 0-1.56-.091a18.47 18.47 0 0 0 10.013 2.935c12.017 0 18.587-9.953 18.587-18.585q0-.422-.02-.845a13.3 13.3 0 0 0 3.257-3.379z"/></g><defs><clipPath id="a"><path fill="#fff" d="M.308 0h33.654v33.654H.308z"/></clipPath></defs></svg>
